other/ftp_server.svg

<?xml version="1.0" encoding="UTF-8"?><svg id="b" xmlns="http://www.w3.org/2000/svg" viewBox="0 0 48 48"><defs><style>.c{fill:#fff;}.d{fill:none;stroke:#fff;stroke-linecap:round;stroke-linejoin:round;}</style></defs><circle class="d" cx="24" cy="24" r="21.5"/><path class="d" d="m11.6,21c1-2.4,2.3-4.2,4.1-5.7,2.2-1.9,3.8-2.5,7-3.4l-1.3-4.8c-3.4.4-6.7,1.9-9.5,4.3-2.3,2-4,4.6-5,7.3l4.7,2.3Z"/><path class="d" d="m17.7,23.9c1.8-2.9,4.1-5,7.1-6l-1.2-3.7c-3.2-.2-8.8,4.7-9.5,8l3.6,1.7Z"/><path class="d" d="m36.5,24.9c3.1,3.5,2.6,8.8-1,12-3.6,3.2-9,3.1-12.1-.4s-2.7-9,.9-12.2,9.1-2.9,12.2.6Z"/><line class="d" x1="22.9" y1="35.6" x2="35.7" y2="24.2"/><circle class="c" cx="23.8" cy="29.5" r=".75"/><circle class="c" cx="29.5" cy="24.5" r=".75"/><line class="d" x1="27.4" y1="19.2" x2="27.8" y2="22.4"/><line class="d" x1="18.8" y1="26.8" x2="21.9" y2="27.5"/><path class="d" d="m15.9,33.7h0c-.7.6-.8,1.7-.1,2.4l3.5,3.9,2.5-2.2-3.5-3.9c-.7-.8-1.7-.8-2.4-.2Z"/><path class="d" d="m34.6,17.1h0c-.7.6-.8,1.7-.1,2.4l3.5,3.9,2.5-2.2-3.5-3.9c-.7-.7-1.7-.8-2.4-.2Z"/></svg>

<svg viewBox="0 0 48 48" xmlns="http://www.w3.org/2000/svg">
    <style>
        .a{fill:none;stroke:#FFFFFF;stroke-linecap:round;stroke-linejoin:round}
    </style>
    <circle class="a" cx="24" cy="24" r="21.5"/>
    <path class="a" d="M11.6,21c1-2.4,2.3-4.2,4.1-5.7c2.2-1.9,3.8-2.5,7-3.4l-1.3-4.8C18,7.5,14.7,9,11.9,11.4c-2.3,2-4,4.6-5,7.3L11.6,21z"/>
    <path class="a" d="M17.7,23.9c1.8-2.9,4.1-5,7.1-6l-1.2-3.7c-3.2-0.2-8.8,4.7-9.5,8L17.7,23.9z"/>
    <path class="a" d="M36.5,24.9c3.1,3.5,2.6,8.8-1,12c-3.6,3.2-9,3.1-12.1-0.4s-2.7-9,0.9-12.2S33.4,21.4,36.5,24.9z"/>
    <line class="a" x1="22.9" x2="35.7" y1="35.6" y2="24.2"/>
    <circle class="a" cx="23.8" cy="29.5" r="0.5"/>
    <circle class="a" cx="29.5" cy="24.5" r="0.5"/>
    <line class="a" x1="27.4" x2="27.8" y1="19.2" y2="22.4"/>
    <line class="a" x1="18.8" x2="21.9" y1="26.8" y2="27.5"/>
    <path class="a" d="M15.9,33.7L15.9,33.7c-0.7,0.6-0.8,1.7-0.1,2.4l3.5,3.9l2.5-2.2l-3.5-3.9C17.6,33.1,16.6,33.1,15.9,33.7z"/>
    <path class="a" d="M34.6,17.1L34.6,17.1c-0.7,0.6-0.8,1.7-0.1,2.4l3.5,3.9l2.5-2.2l-3.5-3.9C36.3,16.6,35.3,16.5,34.6,17.1z"/>
</svg>
